public/images/icon-sidebar-cta.svg

<svg width="80" height="80" viewBox="0 0 80 80" fill="none" xmlns="http://www.w3.org/2000/svg">
<g clip-path="url(#clip0_275_2281)">
<path d="M0 30.0079L38.52 54.5229C38.96 54.8479 39.48 55.0079 40 55.0079C40.52 55.0079 41.04 54.8479 41.48 54.5229L80 30.0079L41.5 0.507905C40.61 -0.157095 39.39 -0.157095 38.5 0.507905L0 30.0079Z" fill="#DCF763"/>
<path d="M65 0.0078125H15C12.245 0.0078125 10 2.25281 10 5.00781V60.0078C10 61.3878 11.12 62.5078 12.5 62.5078H67.5C68.88 62.5078 70 61.3878 70 60.0078V5.00781C70 2.25281 67.76 0.0078125 65 0.0078125Z" fill="#D7D7D7"/>
<path d="M22.5 15.0078H57.5C58.88 15.0078 60 13.8878 60 12.5078C60 11.1278 58.88 10.0078 57.5 10.0078H22.5C21.12 10.0078 20 11.1278 20 12.5078C20 13.8878 21.12 15.0078 22.5 15.0078Z" fill="#A0A0A0"/>
<path d="M57.5 20.0078H22.5C21.12 20.0078 20 21.1278 20 22.5078C20 23.8878 21.12 25.0078 22.5 25.0078H57.5C58.88 25.0078 60 23.8878 60 22.5078C60 21.1278 58.88 20.0078 57.5 20.0078Z" fill="#A0A0A0"/>
<path d="M42.5 30.0078H22.5C21.12 30.0078 20 31.1278 20 32.5078C20 33.8878 21.12 35.0078 22.5 35.0078H42.5C43.88 35.0078 45 33.8878 45 32.5078C45 31.1278 43.88 30.0078 42.5 30.0078Z" fill="#A0A0A0"/>
<path d="M41.48 54.5228C41.04 54.8478 40.52 55.0078 40 55.0078C39.48 55.0078 38.96 54.8478 38.52 54.5228L0 30.0078V75.0078C0 77.7678 2.24 80.0078 5 80.0078H75C77.76 80.0078 80 77.7678 80 75.0078V30.0078L41.48 54.5228Z" fill="#C6DE59"/>
<path d="M75 80.0078H5C2.195 80.0078 0 77.8128 0 75.0078C0 74.2128 0.38 73.4628 1.02 72.9928L38.52 47.9928C38.96 47.6678 39.48 47.5078 40 47.5078C40.52 47.5078 41.04 47.6678 41.48 47.9928L78.98 72.9928C79.62 73.4628 80 74.2128 80 75.0078C80 77.8128 77.805 80.0078 75 80.0078Z" fill="#DCF763"/>
</g>
<defs>
<clipPath id="clip0_275_2281">
<rect width="80" height="80" fill="white" transform="translate(0 0.0078125)"/>
</clipPath>
</defs>
</svg>

<?xml version="1.0" encoding="UTF-8"?>
<svg id="Layer_1" data-name="Layer 1" xmlns="http://www.w3.org/2000/svg" xmlns:xlink="http://www.w3.org/1999/xlink" viewBox="0 0 80 80">
  <defs>
    <style>
      .cls-1 {
        fill: none;
      }

      .cls-2 {
        fill: #f0e8f7;
      }

      .cls-3 {
        fill: #be8fdc;
      }

      .cls-4 {
        fill: #895daf;
      }

      .cls-5 {
        fill: #d8bbef;
      }

      .cls-6 {
        clip-path: url(#clippath);
      }
    </style>
    <clipPath id="clippath">
      <rect class="cls-1" y="0" width="80" height="80"/>
    </clipPath>
  </defs>
  <g class="cls-6">
    <g>
      <path class="cls-3" d="M0,30.01l38.52,24.51c.44.33.96.49,1.48.49s1.04-.16,1.48-.49l38.52-24.51L41.5.51c-.89-.67-2.11-.67-3,0L0,30.01Z"/>
      <path class="cls-2" d="M65,0H15C12.24,0,10,2.25,10,5.01v55c0,1.38,1.12,2.5,2.5,2.5h55c1.38,0,2.5-1.12,2.5-2.5V5.01C70,2.25,67.76,0,65,0Z"/>
      <path class="cls-5" d="M22.5,15.01h35c1.38,0,2.5-1.12,2.5-2.5s-1.12-2.5-2.5-2.5H22.5c-1.38,0-2.5,1.12-2.5,2.5s1.12,2.5,2.5,2.5Z"/>
      <path class="cls-5" d="M57.5,20.01H22.5c-1.38,0-2.5,1.12-2.5,2.5s1.12,2.5,2.5,2.5h35c1.38,0,2.5-1.12,2.5-2.5s-1.12-2.5-2.5-2.5Z"/>
      <path class="cls-5" d="M42.5,30.01h-20c-1.38,0-2.5,1.12-2.5,2.5s1.12,2.5,2.5,2.5h20c1.38,0,2.5-1.12,2.5-2.5s-1.12-2.5-2.5-2.5Z"/>
      <path class="cls-4" d="M41.48,54.52c-.44.33-.96.49-1.48.49s-1.04-.16-1.48-.49L0,30.01v45c0,2.76,2.24,5,5,5h70c2.76,0,5-2.24,5-5V30.01l-38.52,24.52Z"/>
      <path class="cls-3" d="M75,80.01H5c-2.81,0-5-2.19-5-5,0-.79.38-1.54,1.02-2.01l37.5-25c.44-.33.96-.49,1.48-.49s1.04.16,1.48.49l37.5,25c.64.47,1.02,1.22,1.02,2.01,0,2.81-2.19,5-5,5Z"/>
    </g>
  </g>
</svg>
